.local/share/icons/Gruvbox-Plus-Dark/actions/symbolic/view-restore-symbolic.svg

<svg width="16" height="16" version="1.1" xmlns="http://www.w3.org/2000/svg">
  <defs>
    <style id="current-color-scheme" type="text/css">.ColorScheme-Text { color:#ebdbb2; } .ColorScheme-Highlight { color:#458588; }</style>
  </defs>
  <path class="ColorScheme-Text" d="m4 2.004v3h-3v2h4c1 0 1-1 1-1v-4zm6 0v4s0 1 1 1h4v-2h-3v-3zm-9 7v2h3v3h2v-4s0-1-1-1zm10 0c-1-0.003906-1 1-1 1v4h2v-3h3v-2z" fill="currentColor"/>
</svg>

<svg xmlns="http://www.w3.org/2000/svg" width="16" height="16" version="1.1">
 <path style="fill:#ebdbb2" d="M 11,9 C 11,9 10,9 10,10 V 14 H 12 V 11 H 15 V 9 Z M 1,9 V 11 H 4 V 14 H 6 V 10 C 6,10 6,9 5,9 Z M 10,2 V 6 C 10,6 10,7 11,7 H 15 V 5 H 12 V 2 Z M 4,2 V 5 H 1 V 7 H 5 C 6,7 6,6 6,6 V 2 Z"/>
</svg>
